lib/svg/question.svg

<svg xmlns="http://www.w3.org/2000/svg" width="14" height="16" viewBox="0 0 14 16"><path d="M6 10h2v2H6v-2zm4-3.5C10 8.64 8 9 8 9H6c0-.55.45-1 1-1h.5c.28 0 .5-.22.5-.5v-1c0-.28-.22-.5-.5-.5h-1c-.28 0-.5.22-.5.5V7H4c0-1.5 1.5-3 3-3s3 1 3 2.5zM7 2.3c3.14 0 5.7 2.56 5.7 5.7s-2.56 5.7-5.7 5.7A5.71 5.71 0 0 1 1.3 8c0-3.14 2.56-5.7 5.7-5.7zM7 1C3.14 1 0 4.14 0 8s3.14 7 7 7 7-3.14 7-7-3.14-7-7-7z"/></svg>

<?xml version="1.0" encoding="UTF-8" standalone="no"?>
<svg width="14px" height="16px" viewBox="0 0 14 16" version="1.1" xmlns="http://www.w3.org/2000/svg" xmlns:xlink="http://www.w3.org/1999/xlink">
    <!-- Generator: Sketch 3.8.3 (29802) - http://www.bohemiancoding.com/sketch -->
    <title>question</title>
    <desc>Created with Sketch.</desc>
    <defs></defs>
    <g id="Octicons" stroke="none" stroke-width="1" fill="none" fill-rule="evenodd">
        <g id="question" fill="#000000">
            <path d="M6,10 L8,10 L8,12 L6,12 L6,10 L6,10 Z M10,6.5 C10,8.64 8,9 8,9 L6,9 C6,8.45 6.45,8 7,8 L7.5,8 C7.78,8 8,7.78 8,7.5 L8,6.5 C8,6.22 7.78,6 7.5,6 L6.5,6 C6.22,6 6,6.22 6,6.5 L6,7 L4,7 C4,5.5 5.5,4 7,4 C8.5,4 10,5 10,6.5 L10,6.5 Z M7,2.3 C10.14,2.3 12.7,4.86 12.7,8 C12.7,11.14 10.14,13.7 7,13.7 C3.86,13.7 1.3,11.14 1.3,8 C1.3,4.86 3.86,2.3 7,2.3 L7,2.3 Z M7,1 C3.14,1 0,4.14 0,8 C0,11.86 3.14,15 7,15 C10.86,15 14,11.86 14,8 C14,4.14 10.86,1 7,1 L7,1 Z" id="Shape"></path>
        </g>
    </g>
</svg>
